cssgg/loadbar-doc.svg

<svg
  width="24"
  height="24"
  viewBox="0 0 24 24"
  fill="none"
  xmlns="http://www.w3.org/2000/svg"
>
  <path
    fill-rule="evenodd"
    clip-rule="evenodd"
    d="M17 5H7C6.44772 5 6 5.44772 6 6V18C6 18.5523 6.44772 19 7 19H17C17.5523 19 18 18.5523 18 18V6C18 5.44772 17.5523 5 17 5ZM7 3C5.34315 3 4 4.34315 4 6V18C4 19.6569 5.34315 21 7 21H17C18.6569 21 20 19.6569 20 18V6C20 4.34315 18.6569 3 17 3H7Z"
    fill="currentColor"
  />
  <path d="M8 7H16V9H8V7Z" fill="currentColor" />
  <path d="M8 11H16V13H8V11Z" fill="currentColor" />
  <path d="M8 15H13V17H8V15Z" fill="currentColor" />
</svg>

<svg viewBox="0 0 24 24" xmlns="http://www.w3.org/2000/svg"><path fill-rule="evenodd" d="M17 5H7c-.56 0-1 .44-1 1v12c0 .55.44 1 1 1h10c.55 0 1-.45 1-1V6c0-.56-.45-1-1-1ZM7 3C5.34 3 4 4.34 4 6v12c0 1.65 1.34 3 3 3h10c1.65 0 3-1.35 3-3V6c0-1.66-1.35-3-3-3H7Z"/><g><path d="M8 7h8v2H8V7Z"/><path d="M8 11h8v2H8v-2Z"/><path d="M8 15h5v2H8v-2Z"/></g></svg>
